Simply-White-Circles/scalable/apps/transmission.svg

<svg xmlns="http://www.w3.org/2000/svg" width="48" height="48" viewBox="0 0 12.7 12.7"><path fill="#e6e6e6" d="M6.344.073a6.29 6.29 0 0 0-6.29 6.29 6.29 6.29 0 0 0 6.29 6.288 6.29 6.29 0 0 0 6.29-6.289 6.29 6.29 0 0 0-6.29-6.29zm-.018.936a5.407 5.407 0 0 1 5.407 5.407 5.407 5.407 0 0 1-5.407 5.407A5.407 5.407 0 0 1 .92 6.416 5.407 5.407 0 0 1 6.326 1.01zm-1.97 1.199a.58.58 0 0 0-.58.581.58.58 0 0 0 .58.581H5.7v2.094h1.207V3.37h1.233a.58.58 0 1 0 0-1.162H4.357zM5.7 5.464H3.967a.523.523 0 0 0-.496.413l-.723 3.907a.337.337 0 0 0 .344.414h2.11v.014h2.09v-.014h2.116a.336.336 0 0 0 .343-.414l-.723-3.907a.523.523 0 0 0-.496-.413H6.926L6.923 7.17l1.171.001-1.832 1.503-1.756-1.497 1.193.004V5.464z"/></svg>

<?xml version="1.0" encoding="UTF-8" standalone="no"?>
<svg
   xmlns:dc="http://purl.org/dc/elements/1.1/"
   xmlns:cc="http://creativecommons.org/ns#"
   xmlns:rdf="http://www.w3.org/1999/02/22-rdf-syntax-ns#"
   xmlns:svg="http://www.w3.org/2000/svg"
   xmlns="http://www.w3.org/2000/svg"
   xmlns:sodipodi="http://sodipodi.sourceforge.net/DTD/sodipodi-0.dtd"
   xmlns:inkscape="http://www.inkscape.org/namespaces/inkscape"
   width="48"
   height="48"
   viewBox="0 0 12.7 12.7"
   version="1.1"
   id="svg4"
   sodipodi:docname="transmission.svg"
   inkscape:version="0.92.4 (5da689c313, 2019-01-14)">
  <metadata
     id="metadata10">
    <rdf:RDF>
      <cc:Work
         rdf:about="">
        <dc:format>image/svg+xml</dc:format>
        <dc:type
           rdf:resource="http://purl.org/dc/dcmitype/StillImage" />
        <dc:title></dc:title>
      </cc:Work>
    </rdf:RDF>
  </metadata>
  <defs
     id="defs8" />
  <sodipodi:namedview
     pagecolor="#ffffff"
     bordercolor="#666666"
     borderopacity="1"
     objecttolerance="10"
     gridtolerance="10"
     guidetolerance="10"
     inkscape:pageopacity="0"
     inkscape:pageshadow="2"
     inkscape:window-width="1087"
     inkscape:window-height="480"
     id="namedview6"
     showgrid="false"
     inkscape:zoom="4.9166667"
     inkscape:cx="2.1355932"
     inkscape:cy="24"
     inkscape:window-x="0"
     inkscape:window-y="25"
     inkscape:window-maximized="0"
     inkscape:current-layer="svg4" />
  <path
     d="m 6.344,0.073 a 6.29,6.29 0 0 0 -6.29,6.29 6.29,6.29 0 0 0 6.29,6.288 6.29,6.29 0 0 0 6.29,-6.289 6.29,6.29 0 0 0 -6.29,-6.29 z M 6.326,1.009 A 5.407,5.407 0 0 1 11.733,6.416 5.407,5.407 0 0 1 6.326,11.823 5.407,5.407 0 0 1 0.92,6.416 5.407,5.407 0 0 1 6.326,1.01 Z M 4.356,2.208 A 0.58,0.58 0 0 0 3.776,2.789 0.58,0.58 0 0 0 4.356,3.37 H 5.7 V 5.464 H 6.907 V 3.37 H 8.14 a 0.581,0.581 0 1 0 0,-1.162 H 4.357 Z M 5.7,5.464 H 3.967 A 0.523,0.523 0 0 0 3.471,5.877 L 2.748,9.784 a 0.337,0.337 0 0 0 0.344,0.414 h 2.11 v 0.014 h 2.09 V 10.198 H 9.408 A 0.336,0.336 0 0 0 9.751,9.784 L 9.028,5.877 A 0.523,0.523 0 0 0 8.532,5.464 H 6.926 L 6.923,7.17 8.094,7.171 6.262,8.674 4.506,7.177 5.699,7.181 V 5.464 Z"
     id="path2"
     inkscape:connector-curvature="0"
     style="fill:#e6e6e6" />
</svg>
